X: 8757
T: Cucanandy
R: slip jig
M: 9/8
K: Dmajor
|:F3 F2E D2E|F2A A2F A3|1 F3 F2E D2E|F2B B2A B3:|2 B2A F2E D2E|F2B B2A B3||
|:ABc d2c d2E|F2A A2F A3|1 ABc d2c d2E|F2B B2A B3:|2 B2A F2E D2E|F2B B2A B3||

